src/cmd/lc_rejecttrackedchangetonext.svg

<?xml version="1.0" encoding="UTF-8" standalone="no"?>
<svg
   xmlns:dc="http://purl.org/dc/elements/1.1/"
   xmlns:cc="http://creativecommons.org/ns#"
   xmlns:rdf="http://www.w3.org/1999/02/22-rdf-syntax-ns#"
   xmlns:svg="http://www.w3.org/2000/svg"
   xmlns="http://www.w3.org/2000/svg"
   xmlns:xlink="http://www.w3.org/1999/xlink"
   xmlns:sodipodi="http://sodipodi.sourceforge.net/DTD/sodipodi-0.dtd"
   xmlns:inkscape="http://www.inkscape.org/namespaces/inkscape"
   height="24"
   width="24"
   version="1.1"
   id="svg126"
   sodipodi:docname="lc_rejecttrackedchangetonext.svg"
   inkscape:version="1.0.1 (3bc2e813f5, 2020-09-07)"
   inkscape:export-filename="/home/jupiter007/Libreoffice yaru theme fullcolor/build/cmd/lc_rejecttrackedchangetonext.png"
   inkscape:export-xdpi="95"
   inkscape:export-ydpi="95">
  <metadata
     id="metadata132">
    <rdf:RDF>
      <cc:Work
         rdf:about="">
        <dc:format>image/svg+xml</dc:format>
        <dc:type
           rdf:resource="http://purl.org/dc/dcmitype/StillImage" />
      </cc:Work>
    </rdf:RDF>
  </metadata>
  <defs
     id="defs130" />
  <sodipodi:namedview
     pagecolor="#ffffff"
     bordercolor="#666666"
     borderopacity="1"
     objecttolerance="10"
     gridtolerance="10"
     guidetolerance="10"
     inkscape:pageopacity="0"
     inkscape:pageshadow="2"
     inkscape:window-width="1920"
     inkscape:window-height="1016"
     id="namedview128"
     showgrid="true"
     inkscape:zoom="39.333334"
     inkscape:cx="17.101806"
     inkscape:cy="6.8936788"
     inkscape:window-x="0"
     inkscape:window-y="27"
     inkscape:window-maximized="1"
     inkscape:current-layer="svg126"
     inkscape:document-rotation="0">
    <inkscape:grid
       type="xygrid"
       id="grid975" />
  </sodipodi:namedview>
  <radialGradient
     id="a"
     cx="11.03125"
     cy="17.125"
     gradientTransform="matrix(.63623879 0 0 .14315373 8.98149 18.449012)"
     gradientUnits="userSpaceOnUse"
     r="9.84375"
     xlink:href="#b" />
  <linearGradient
     id="b">
    <stop
       offset="0"
       id="stop3" />
    <stop
       offset="1"
       stop-opacity="0"
       id="stop5" />
  </linearGradient>
  <linearGradient
     id="c"
     gradientTransform="matrix(.57894734 0 0 .55555556 34.074641 10.496731)"
     gradientUnits="userSpaceOnUse"
     x1="11.192374"
     x2="11.192374"
     y1="-.740988"
     y2="30.298229">
    <stop
       offset="0"
       stop-color="#f8b17e"
       id="stop8" />
    <stop
       offset=".31209752"
       stop-color="#e35d4f"
       id="stop10" />
    <stop
       offset=".57054454"
       stop-color="#c6262e"
       id="stop12" />
    <stop
       offset="1"
       stop-color="#690b54"
       id="stop14" />
  </linearGradient>
  <linearGradient
     id="d"
     gradientUnits="userSpaceOnUse"
     x1="41.225124"
     x2="41.225124"
     y1="23.238064"
     y2="7.39004">
    <stop
       offset="0"
       stop-color="#791235"
       id="stop17" />
    <stop
       offset="1"
       stop-color="#dd3b27"
       id="stop19" />
  </linearGradient>
  <linearGradient
     id="e"
     gradientTransform="matrix(.3077295 -.29497944 .3077295 .29497944 25.944842 17.144019)"
     gradientUnits="userSpaceOnUse"
     x1="36.010902"
     x2="16.331276"
     xlink:href="#f"
     y1="13.022708"
     y2="32.702335" />
  <linearGradient
     id="f">
    <stop
       offset="0"
       stop-color="#fff"
       stop-opacity=".702"
       id="stop23" />
    <stop
       offset="1"
       stop-color="#fff"
       stop-opacity="0"
       id="stop25" />
  </linearGradient>
  <linearGradient
     id="g"
     gradientTransform="matrix(.3077295 -.29497944 .3077295 .29497944 25.634631 17.292858)"
     gradientUnits="userSpaceOnUse"
     x1="28.449389"
     x2="16.331276"
     xlink:href="#f"
     y1="20.584223"
     y2="32.702335" />
  <linearGradient
     id="h"
     gradientTransform="matrix(.40540511 0 0 .46216215 2.269687 .858112)"
     gradientUnits="userSpaceOnUse"
     x1="23.99999"
     x2="23.99999"
     y1="2.787236"
     y2="43">
    <stop
       offset="0"
       stop-color="#fff"
       id="stop29" />
    <stop
       offset=".03626217"
       stop-color="#fff"
       stop-opacity=".235294"
       id="stop31" />
    <stop
       offset=".95056331"
       stop-color="#fff"
       stop-opacity=".156863"
       id="stop33" />
    <stop
       offset="1"
       stop-color="#fff"
       stop-opacity=".392157"
       id="stop35" />
  </linearGradient>
  <linearGradient
     id="i"
     gradientTransform="matrix(.48571543 0 0 .41480329 .342829 1.363181)"
     gradientUnits="userSpaceOnUse"
     x1="25.132275"
     x2="25.132275"
     y1="-3.71906"
     y2="47.013336">
    <stop
       offset="0"
       stop-color="#f4f4f4"
       id="stop38" />
    <stop
       offset="1"
       stop-color="#dbdbdb"
       id="stop40" />
  </linearGradient>
  <linearGradient
     id="j"
     gradientTransform="matrix(.39221364 0 0 .38819409 29.199296 .900891)"
     gradientUnits="userSpaceOnUse"
     x1="-51.786404"
     x2="-51.786404"
     y1="50.786446"
     y2="2.906247">
    <stop
       offset="0"
       stop-color="#a0a0a0"
       id="stop43" />
    <stop
       offset="1"
       stop-color="#bebebe"
       id="stop45" />
  </linearGradient>
  <radialGradient
     id="k"
     cx="605.71429"
     cy="486.64789"
     gradientTransform="matrix(.01204859 0 0 .0082353 13.238793 17.980564)"
     gradientUnits="userSpaceOnUse"
     r="117.14286"
     xlink:href="#b" />
  <radialGradient
     id="l"
     cx="605.71429"
     cy="486.64789"
     gradientTransform="matrix(-.01204859 0 0 .0082353 10.761206 17.980564)"
     gradientUnits="userSpaceOnUse"
     r="117.14286"
     xlink:href="#b" />
  <linearGradient
     id="m"
     gradientTransform="matrix(.0352071 0 0 .0082353 -.724852 17.980547)"
     gradientUnits="userSpaceOnUse"
     x1="302.85715"
     x2="302.85715"
     y1="366.64789"
     y2="609.50507">
    <stop
       offset="0"
       stop-opacity="0"
       id="stop50" />
    <stop
       offset=".5"
       id="stop52" />
    <stop
       offset="1"
       stop-opacity="0"
       id="stop54" />
  </linearGradient>
  <radialGradient
     id="n"
     cx="24.837126"
     cy="36.421127"
     gradientTransform="matrix(-.27598143 0 0 -.29583148 24.323798 16.819207)"
     gradientUnits="userSpaceOnUse"
     r="15.644737"
     xlink:href="#b" />
  <linearGradient
     id="o"
     gradientTransform="matrix(.49219581 0 0 .45839231 4.509306 -4.793718)"
     gradientUnits="userSpaceOnUse"
     x1="23.731871"
     x2="23.731871"
     y1="5.394345"
     y2="39.735077">
    <stop
       offset="0"
       stop-color="#90dbec"
       id="stop58" />
    <stop
       offset=".26238"
       stop-color="#55c1ec"
       id="stop60" />
    <stop
       offset=".704952"
       stop-color="#3689e6"
       id="stop62" />
    <stop
       offset="1"
       stop-color="#2b63a0"
       id="stop64" />
  </linearGradient>
  <linearGradient
     id="p"
     gradientTransform="matrix(0 -.5372019 .57681717 0 -15.997188 19.865617)"
     gradientUnits="userSpaceOnUse"
     x1="40.957993"
     x2="18.680689"
     y1="46.97065"
     y2="46.97065">
    <stop
       offset="0"
       stop-color="#fff"
       id="stop67" />
    <stop
       offset=".45000002"
       stop-color="#fff"
       stop-opacity=".235294"
       id="stop69" />
    <stop
       offset=".65000004"
       stop-color="#fff"
       stop-opacity=".156863"
       id="stop71" />
    <stop
       offset="1"
       stop-color="#fff"
       stop-opacity=".392157"
       id="stop73" />
  </linearGradient>
  <path
     id="path4237-1"
     style="font-style:normal;font-variant:normal;font-weight:normal;font-stretch:normal;font-size:15px;line-height:125%;font-family:Ubuntu;-inkscape-font-specification:Ubuntu;text-align:center;letter-spacing:0px;word-spacing:0px;writing-mode:lr-tb;text-anchor:middle;display:inline;opacity:0.7;fill:#000000;fill-opacity:1;stroke:none;stroke-width:0.999802"
     d="M 6.9941406,3 C 5.7359406,3.0145 4.81525,2.9693996 4.0625,3.3847656 3.68613,3.5924256 3.3892694,3.9441525 3.2246094,4.3828125 3.0599394,4.8214825 3,5.3424 3,6 V 7.4882812 18 c 0,0.65761 0.0599,1.178577 0.2246094,1.617188 C 3.3892894,20.055799 3.68614,20.405712 4.0625,20.613281 4.81522,21.028411 5.7360406,20.98493 6.9941406,21 h 0.00195 10.0058592 0.0039 c 1.25819,-0.0145 2.178891,0.0306 2.931641,-0.384766 0.37637,-0.20766 0.673221,-0.559386 0.837891,-0.998046 C 20.93993,19.178517 21,18.65761 21,18 V 7.4667969 6 c 0,-0.025237 -0.0037,-0.043522 -0.0039,-0.068359 L 18,9 H 12 V 5 L 13,4.0292969 V 3 H 6.9980469 Z"
     sodipodi:nodetypes="cccscsccccccccscscccccccc" />
  <path
     id="path1993"
     style="opacity:1;vector-effect:none;fill:#ffffff;fill-opacity:1;stroke:none;stroke-width:1;stroke-linecap:round;stroke-linejoin:bevel;stroke-miterlimit:4;stroke-dasharray:none;stroke-dashoffset:0;stroke-opacity:1"
     d="M 11.982422 4.0273438 C 10.425841 4.0381437 6.8741697 4.0158863 5.3242188 4.0664062 C 4.8629898 4.1090763 4.3071208 4.2718426 4.1679688 4.7753906 C 3.9489748 5.4107366 4.0588664 6.1096755 4.0214844 6.7578125 C 4.0136844 9.0548975 3.9984788 16.353226 4.0429688 18.642578 C 4.0820688 19.104507 4.2459825 19.655641 4.7421875 19.806641 C 5.3746435 20.031723 6.0259044 19.929379 6.6777344 19.960938 C 8.1019694 19.967737 11.529221 19.972366 12.955078 19.972656 C 14.659609 19.973006 16.363698 19.966635 18.0625 19.953125 C 18.574411 19.941115 19.245438 19.973949 19.646484 19.548828 C 20.067581 19.009045 19.933078 18.280297 19.96875 17.644531 C 19.979378 15.456001 19.987901 9.6142301 19.955078 6.5820312 L 18 7.8046875 L 18 5 L 13 5 L 13 4.0292969 C 12.660829 4.0293084 12.321591 4.0271311 11.982422 4.0273438 z " />
  <path
     inkscape:connector-curvature="0"
     style="fill:#232629"
     d="m 6,10 v 1 h 5 v -1 z"
     id="path838" />
  <path
     style="fill:#232629"
     d="m 8,13 v 1 h 5 v -1 z"
     id="path2"
     inkscape:connector-curvature="0" />
  <path
     inkscape:connector-curvature="0"
     style="fill:#c7162b"
     d="m 6,7 v 1 h 4 V 7 Z"
     id="path834" />
  <path
     style="fill:#c7162b"
     d="m 12,10 v 1 h 2 v -1 z"
     id="path832"
     inkscape:connector-curvature="0" />
  <path
     inkscape:connector-curvature="0"
     style="fill:#c7162b"
     d="m 6,13 v 1 h 1 v -1 z"
     id="path4" />
  <path
     id="path840"
     d="m 11,7 v 1 h 6 V 7 Z"
     style="fill:#232629;stroke-width:1.18322"
     inkscape:connector-curvature="0"
     sodipodi:nodetypes="ccccc" />
  <path
     inkscape:connector-curvature="0"
     style="fill:#232629;stroke-width:0.77459669"
     d="m 15,10 v 1 h 3 v -1 z"
     id="path842" />
  <path
     id="path844"
     d="m 14,13 v 1 h 4 v -1 z"
     style="fill:#c7162b"
     inkscape:connector-curvature="0" />
  <path
     id="path846"
     d="m 6,16 v 0.999999 h 4 V 16 Z"
     style="fill:#c7162b"
     inkscape:connector-curvature="0" />
  <path
     inkscape:connector-curvature="0"
     style="fill:#232629;stroke-width:1.18321598"
     d="m 11,16 v 1 h 7 v -1 z"
     id="path848" />
  <circle
     style="opacity:1;vector-effect:none;fill:#c7162b;fill-opacity:1;stroke:none;stroke-width:3.49999976;stroke-linecap:butt;stroke-linejoin:round;stroke-miterlimit:4;stroke-dasharray:none;stroke-dashoffset:0;stroke-opacity:1"
     id="path2644"
     cy="19.5"
     cx="19.5"
     r="3.5" />
  <path
     style="opacity:1;fill:#ffffff;fill-opacity:1;stroke:none;stroke-width:2;stroke-linejoin:round;stroke-miterlimit:4;stroke-dasharray:none;stroke-opacity:1"
     d="M 17.378679,18.085786 18.792892,19.5 l -1.414213,1.414214 0.707106,0.707106 1.414214,-1.414213 1.414214,1.414213 0.707106,-0.707106 L 20.207106,19.5 21.621319,18.085786 20.914213,17.37868 19.499999,18.792893 18.085785,17.37868 Z"
     id="rect851"
     inkscape:connector-curvature="0" />
  <path
     inkscape:connector-curvature="0"
     style="fill:#e95420;fill-opacity:1;stroke:none;stroke-width:1px;stroke-linecap:butt;stroke-linejoin:miter;stroke-opacity:1"
     d="M 23,3.5 19,1 v 2 h -5 v 1 h 5 v 2 z"
     id="path834-1"
     sodipodi:nodetypes="cccccccc" />
</svg>

<?xml version="1.0" encoding="UTF-8" standalone="no"?>
<svg
   xmlns:dc="http://purl.org/dc/elements/1.1/"
   xmlns:cc="http://creativecommons.org/ns#"
   xmlns:rdf="http://www.w3.org/1999/02/22-rdf-syntax-ns#"
   xmlns:svg="http://www.w3.org/2000/svg"
   xmlns="http://www.w3.org/2000/svg"
   xmlns:xlink="http://www.w3.org/1999/xlink"
   xmlns:sodipodi="http://sodipodi.sourceforge.net/DTD/sodipodi-0.dtd"
   xmlns:inkscape="http://www.inkscape.org/namespaces/inkscape"
   height="24"
   width="24"
   version="1.1"
   id="svg126"
   sodipodi:docname="lc_rejecttrackedchangetonext.svg"
   inkscape:version="0.92.5 (2060ec1f9f, 2020-04-08)"
   inkscape:export-filename="/home/jupiter007/Libreoffice yaru theme fullcolor/build/cmd/lc_rejecttrackedchangetonext.png"
   inkscape:export-xdpi="95"
   inkscape:export-ydpi="95">
  <metadata
     id="metadata132">
    <rdf:RDF>
      <cc:Work
         rdf:about="">
        <dc:format>image/svg+xml</dc:format>
        <dc:type
           rdf:resource="http://purl.org/dc/dcmitype/StillImage" />
      </cc:Work>
    </rdf:RDF>
  </metadata>
  <defs
     id="defs130" />
  <sodipodi:namedview
     pagecolor="#ffffff"
     bordercolor="#666666"
     borderopacity="1"
     objecttolerance="10"
     gridtolerance="10"
     guidetolerance="10"
     inkscape:pageopacity="0"
     inkscape:pageshadow="2"
     inkscape:window-width="1920"
     inkscape:window-height="1011"
     id="namedview128"
     showgrid="true"
     inkscape:zoom="19.666667"
     inkscape:cx="15.90099"
     inkscape:cy="8.7114865"
     inkscape:window-x="1920"
     inkscape:window-y="32"
     inkscape:window-maximized="1"
     inkscape:current-layer="svg126">
    <inkscape:grid
       type="xygrid"
       id="grid975" />
  </sodipodi:namedview>
  <radialGradient
     id="a"
     cx="11.03125"
     cy="17.125"
     gradientTransform="matrix(.63623879 0 0 .14315373 8.98149 18.449012)"
     gradientUnits="userSpaceOnUse"
     r="9.84375"
     xlink:href="#b" />
  <linearGradient
     id="b">
    <stop
       offset="0"
       id="stop3" />
    <stop
       offset="1"
       stop-opacity="0"
       id="stop5" />
  </linearGradient>
  <linearGradient
     id="c"
     gradientTransform="matrix(.57894734 0 0 .55555556 34.074641 10.496731)"
     gradientUnits="userSpaceOnUse"
     x1="11.192374"
     x2="11.192374"
     y1="-.740988"
     y2="30.298229">
    <stop
       offset="0"
       stop-color="#f8b17e"
       id="stop8" />
    <stop
       offset=".31209752"
       stop-color="#e35d4f"
       id="stop10" />
    <stop
       offset=".57054454"
       stop-color="#c6262e"
       id="stop12" />
    <stop
       offset="1"
       stop-color="#690b54"
       id="stop14" />
  </linearGradient>
  <linearGradient
     id="d"
     gradientUnits="userSpaceOnUse"
     x1="41.225124"
     x2="41.225124"
     y1="23.238064"
     y2="7.39004">
    <stop
       offset="0"
       stop-color="#791235"
       id="stop17" />
    <stop
       offset="1"
       stop-color="#dd3b27"
       id="stop19" />
  </linearGradient>
  <linearGradient
     id="e"
     gradientTransform="matrix(.3077295 -.29497944 .3077295 .29497944 25.944842 17.144019)"
     gradientUnits="userSpaceOnUse"
     x1="36.010902"
     x2="16.331276"
     xlink:href="#f"
     y1="13.022708"
     y2="32.702335" />
  <linearGradient
     id="f">
    <stop
       offset="0"
       stop-color="#fff"
       stop-opacity=".702"
       id="stop23" />
    <stop
       offset="1"
       stop-color="#fff"
       stop-opacity="0"
       id="stop25" />
  </linearGradient>
  <linearGradient
     id="g"
     gradientTransform="matrix(.3077295 -.29497944 .3077295 .29497944 25.634631 17.292858)"
     gradientUnits="userSpaceOnUse"
     x1="28.449389"
     x2="16.331276"
     xlink:href="#f"
     y1="20.584223"
     y2="32.702335" />
  <linearGradient
     id="h"
     gradientTransform="matrix(.40540511 0 0 .46216215 2.269687 .858112)"
     gradientUnits="userSpaceOnUse"
     x1="23.99999"
     x2="23.99999"
     y1="2.787236"
     y2="43">
    <stop
       offset="0"
       stop-color="#fff"
       id="stop29" />
    <stop
       offset=".03626217"
       stop-color="#fff"
       stop-opacity=".235294"
       id="stop31" />
    <stop
       offset=".95056331"
       stop-color="#fff"
       stop-opacity=".156863"
       id="stop33" />
    <stop
       offset="1"
       stop-color="#fff"
       stop-opacity=".392157"
       id="stop35" />
  </linearGradient>
  <linearGradient
     id="i"
     gradientTransform="matrix(.48571543 0 0 .41480329 .342829 1.363181)"
     gradientUnits="userSpaceOnUse"
     x1="25.132275"
     x2="25.132275"
     y1="-3.71906"
     y2="47.013336">
    <stop
       offset="0"
       stop-color="#f4f4f4"
       id="stop38" />
    <stop
       offset="1"
       stop-color="#dbdbdb"
       id="stop40" />
  </linearGradient>
  <linearGradient
     id="j"
     gradientTransform="matrix(.39221364 0 0 .38819409 29.199296 .900891)"
     gradientUnits="userSpaceOnUse"
     x1="-51.786404"
     x2="-51.786404"
     y1="50.786446"
     y2="2.906247">
    <stop
       offset="0"
       stop-color="#a0a0a0"
       id="stop43" />
    <stop
       offset="1"
       stop-color="#bebebe"
       id="stop45" />
  </linearGradient>
  <radialGradient
     id="k"
     cx="605.71429"
     cy="486.64789"
     gradientTransform="matrix(.01204859 0 0 .0082353 13.238793 17.980564)"
     gradientUnits="userSpaceOnUse"
     r="117.14286"
     xlink:href="#b" />
  <radialGradient
     id="l"
     cx="605.71429"
     cy="486.64789"
     gradientTransform="matrix(-.01204859 0 0 .0082353 10.761206 17.980564)"
     gradientUnits="userSpaceOnUse"
     r="117.14286"
     xlink:href="#b" />
  <linearGradient
     id="m"
     gradientTransform="matrix(.0352071 0 0 .0082353 -.724852 17.980547)"
     gradientUnits="userSpaceOnUse"
     x1="302.85715"
     x2="302.85715"
     y1="366.64789"
     y2="609.50507">
    <stop
       offset="0"
       stop-opacity="0"
       id="stop50" />
    <stop
       offset=".5"
       id="stop52" />
    <stop
       offset="1"
       stop-opacity="0"
       id="stop54" />
  </linearGradient>
  <radialGradient
     id="n"
     cx="24.837126"
     cy="36.421127"
     gradientTransform="matrix(-.27598143 0 0 -.29583148 24.323798 16.819207)"
     gradientUnits="userSpaceOnUse"
     r="15.644737"
     xlink:href="#b" />
  <linearGradient
     id="o"
     gradientTransform="matrix(.49219581 0 0 .45839231 4.509306 -4.793718)"
     gradientUnits="userSpaceOnUse"
     x1="23.731871"
     x2="23.731871"
     y1="5.394345"
     y2="39.735077">
    <stop
       offset="0"
       stop-color="#90dbec"
       id="stop58" />
    <stop
       offset=".26238"
       stop-color="#55c1ec"
       id="stop60" />
    <stop
       offset=".704952"
       stop-color="#3689e6"
       id="stop62" />
    <stop
       offset="1"
       stop-color="#2b63a0"
       id="stop64" />
  </linearGradient>
  <linearGradient
     id="p"
     gradientTransform="matrix(0 -.5372019 .57681717 0 -15.997188 19.865617)"
     gradientUnits="userSpaceOnUse"
     x1="40.957993"
     x2="18.680689"
     y1="46.97065"
     y2="46.97065">
    <stop
       offset="0"
       stop-color="#fff"
       id="stop67" />
    <stop
       offset=".45000002"
       stop-color="#fff"
       stop-opacity=".235294"
       id="stop69" />
    <stop
       offset=".65000004"
       stop-color="#fff"
       stop-opacity=".156863"
       id="stop71" />
    <stop
       offset="1"
       stop-color="#fff"
       stop-opacity=".392157"
       id="stop73" />
  </linearGradient>
  <path
     sodipodi:nodetypes="cccscsccccccccscscccccc"
     inkscape:connector-curvature="0"
     id="path4237-1"
     d="m 6.994116,2.999708 c -1.2582,0.0145 -2.178891,-0.0306 -2.931641,0.384766 -0.37637,0.20766 -0.673231,0.559387 -0.837891,0.998047 -0.16467,0.43867 -0.224609,0.959587 -0.224609,1.617187 v 1.488281 10.512303 c 0,0.65761 0.0599,1.178577 0.224609,1.617188 0.16468,0.438611 0.461531,0.788524 0.837891,0.996093 0.75272,0.41513 1.673541,0.371649 2.931641,0.386719 h 0.002 10.005859 0.0039 c 1.25819,-0.0145 2.178891,0.0306 2.931641,-0.384766 0.37637,-0.20766 0.673221,-0.559386 0.837891,-0.998046 0.164539,-0.438671 0.224618,-0.959578 0.224618,-1.617188 V 7.466505 5.999708 c 0,-0.6576 -0.0599,-1.178577 -0.224609,-1.617187 -0.16468,-0.4386 -0.461531,-0.788534 -0.837891,-0.996094 -0.75277,-0.41513 -1.673601,-0.371639 -2.931691,-0.386719 h -0.002 -10.005859 z"
     style="font-style:normal;font-variant:normal;font-weight:normal;font-stretch:normal;font-size:15px;line-height:125%;font-family:Ubuntu;-inkscape-font-specification:Ubuntu;text-align:center;letter-spacing:0px;word-spacing:0px;writing-mode:lr-tb;text-anchor:middle;display:inline;opacity:0.7;fill:#000000;fill-opacity:1;stroke:none;stroke-width:0.99980211" />
  <path
     inkscape:connector-curvature="0"
     id="path1993"
     d="M 11.983344,4.026893 C 10.426763,4.037693 6.873354,4.015143 5.323403,4.065663 4.862174,4.108333 4.307215,4.272082 4.168063,4.77563 3.949069,5.410976 4.059649,6.109417 4.022267,6.757554 c -0.0078,2.297085 -0.02297,9.596429 0.02152,11.885781 0.0391,0.461929 0.202551,1.012666 0.698756,1.163666 0.632456,0.225082 1.284144,0.12274 1.935974,0.154298 1.424235,0.0068 4.850563,0.01102 6.27642,0.01131 1.704531,3.5e-4 3.408388,-0.005 5.10719,-0.01851 0.511911,-0.01201 1.183699,0.01993 1.584745,-0.405191 0.421097,-0.539783 0.287073,-1.268021 0.322745,-1.903787 0.01187,-2.444323 0.02769,-9.911096 -0.0219,-12.356795 C 19.898437,4.886285 19.777725,4.425374 19.372578,4.243851 18.704409,3.949753 17.946373,4.075832 17.246657,4.038278 15.49225,4.026478 13.737783,4.025788 11.983344,4.026888 Z"
     style="opacity:1;vector-effect:none;fill:#ffffff;fill-opacity:1;stroke:none;stroke-width:1;stroke-linecap:round;stroke-linejoin:bevel;stroke-miterlimit:4;stroke-dasharray:none;stroke-dashoffset:0;stroke-opacity:1"
     sodipodi:nodetypes="cccccccsccccccc" />
  <path
     inkscape:connector-curvature="0"
     style="fill:#232629"
     d="m 6,10 v 1 h 5 v -1 z"
     id="path838" />
  <path
     style="fill:#232629"
     d="m 8,13 v 1 h 5 v -1 z"
     id="path2"
     inkscape:connector-curvature="0" />
  <path
     inkscape:connector-curvature="0"
     style="fill:#c7162b"
     d="m 6,7 v 1 h 4 V 7 Z"
     id="path834" />
  <path
     style="fill:#c7162b"
     d="m 12,10 v 1 h 2 v -1 z"
     id="path832"
     inkscape:connector-curvature="0" />
  <path
     inkscape:connector-curvature="0"
     style="fill:#c7162b"
     d="m 6,13 v 1 h 1 v -1 z"
     id="path4" />
  <path
     id="path840"
     d="m 11,7 v 1 h 7 V 7 Z"
     style="fill:#232629;stroke-width:1.18321598"
     inkscape:connector-curvature="0" />
  <path
     inkscape:connector-curvature="0"
     style="fill:#232629;stroke-width:0.77459669"
     d="m 15,10 v 1 h 3 v -1 z"
     id="path842" />
  <path
     id="path844"
     d="m 14,13 v 1 h 4 v -1 z"
     style="fill:#c7162b"
     inkscape:connector-curvature="0" />
  <path
     id="path846"
     d="m 6,16 v 0.999999 h 4 V 16 Z"
     style="fill:#c7162b"
     inkscape:connector-curvature="0" />
  <path
     inkscape:connector-curvature="0"
     style="fill:#232629;stroke-width:1.18321598"
     d="m 11,16 v 1 h 7 v -1 z"
     id="path848" />
  <circle
     style="opacity:1;vector-effect:none;fill:#c7162b;fill-opacity:1;stroke:none;stroke-width:3.49999976;stroke-linecap:butt;stroke-linejoin:round;stroke-miterlimit:4;stroke-dasharray:none;stroke-dashoffset:0;stroke-opacity:1"
     id="path2644"
     cy="19.5"
     cx="19.5"
     r="3.5" />
  <path
     style="opacity:1;fill:#ffffff;fill-opacity:1;stroke:none;stroke-width:2;stroke-linejoin:round;stroke-miterlimit:4;stroke-dasharray:none;stroke-opacity:1"
     d="M 17.378679,18.085786 18.792892,19.5 l -1.414213,1.414214 0.707106,0.707106 1.414214,-1.414213 1.414214,1.414213 0.707106,-0.707106 L 20.207106,19.5 21.621319,18.085786 20.914213,17.37868 19.499999,18.792893 18.085785,17.37868 Z"
     id="rect851"
     inkscape:connector-curvature="0" />
  <path
     sodipodi:nodetypes="cccccccc"
     style="opacity:0.7;fill:#000000;fill-opacity:1;stroke:#000000;stroke-width:2;stroke-linecap:butt;stroke-linejoin:round;stroke-miterlimit:4;stroke-dasharray:none;stroke-opacity:1"
     d="M 22,5.5 18,9 V 7 H 14 V 4 h 4 V 2 Z"
     id="path839"
     inkscape:connector-curvature="0" />
  <path
     sodipodi:nodetypes="cccccccc"
     id="path841"
     d="M 22,5.5 18,9 V 7 H 14 V 4 h 4 V 2 Z"
     style="fill:#ffffff;fill-opacity:1;stroke:none;stroke-width:1px;stroke-linecap:butt;stroke-linejoin:miter;stroke-opacity:1"
     inkscape:connector-curvature="0" />
</svg>
